Suru++-Ubuntu/apps/symbolic/codeblocks-symbolic.svg

<svg width="16" height="16" version="1.1" xmlns="http://www.w3.org/2000/svg">
 <path d="m0.5 0.5v0.5 6h1v-5.5h5.4824219v-1h-6.4824219zm8.4824219 0v1h5.5175781v5.5h1v-6.5h-6.5175781zm-8.4824219 8.5v6.5h6.4824219v-1h-5.4824219v-5.5h-1zm14 0v5.5h-5.5175781v1h6.5175781v-6.5h-1z" style="fill:#808080"/>
</svg>

<svg xmlns="http://www.w3.org/2000/svg" width="16" height="16" version="1.1">
 <path style="fill:#808080" d="M 0.5 0.5 L 0.5 1 L 0.5 7 L 1.5 7 L 1.5 1.5 L 6.9824219 1.5 L 6.9824219 0.5 L 0.5 0.5 z M 8.9824219 0.5 L 8.9824219 1.5 L 14.5 1.5 L 14.5 7 L 15.5 7 L 15.5 0.5 L 8.9824219 0.5 z M 0.5 9 L 0.5 15.5 L 6.9824219 15.5 L 6.9824219 14.5 L 1.5 14.5 L 1.5 9 L 0.5 9 z M 14.5 9 L 14.5 14.5 L 8.9824219 14.5 L 8.9824219 15.5 L 15.5 15.5 L 15.5 9 L 14.5 9 z"/>
</svg>
